.local/share/icons/Gruvbox-Plus-Dark/actions/16/object-stroke-style.svg

<svg width="16" height="16" version="1.1" xmlns="http://www.w3.org/2000/svg">
  <defs>
    <style id="current-color-scheme" type="text/css">.ColorScheme-Text { color:#ebdbb2; } .ColorScheme-Highlight { color:#458588; }</style>
  </defs>
  <path class="ColorScheme-Text" d="m1 13v2h2v-2zm3 0v2h2v-2zm3 0v2h2v-2zm3 0v2h2v-2zm3 0v2h2v-2zm-12-4v2h4v-2zm5 0v2h4v-2zm5 0v2h4v-2zm0-8v2h-10v2h10v2l4-3z" fill="currentColor"/>
</svg>

<svg xmlns="http://www.w3.org/2000/svg" width="16" height="16" version="1.1">
 <defs>
  <style id="current-color-scheme" type="text/css">
   .ColorScheme-Text { color:#565656; } .ColorScheme-Highlight { color:#4285f4; }
  </style>
 </defs>
 <path style="fill:currentColor" class="ColorScheme-Text" d="M 1,13 V 15 H 3 V 13 Z M 4,13 V 15 H 6 V 13 Z M 7,13 V 15 H 9 V 13 Z M 10,13 V 15 H 12 V 13 Z M 13,13 V 15 H 15 V 13 Z M 1,9 V 11 H 5 V 9 Z M 6,9 V 11 H 10 V 9 Z M 11,9 V 11 H 15 V 9 Z M 11,1 V 3 H 1 V 5 H 11 V 7 L 15,4 Z"/>
</svg>
